X:4
T: SCHLOAP KINNEKEN SCHLOAP
N: K0017
O: Europa, Mitteleuropa, Deutschland, Brandenburg
R: Kinder -, Wiegen - Lied
M: 2/4
L: 1/16
K: F
 | c4AAG2 | F4z2
F2 | c3BA2G2 | F4z2
FF | A2G2A2c2 | B2A2G4
A2G2A2c2 | B2A2G4
c4AAG2 | F4z4

